X:218
T:Nine Mile House* (reel) 
B:CRE2.207 (gan ainm)
F:file ID: cre.2/218nine_m
S:Tommy Peoples
N:This is one of "Squire" Jackson's few reels.
Q:180
L:1/8
M:4/4
R:reel
K:D
A3B AFDF|A2FD GECE|A3d BdAF|EDD2 EFGB|
A2AB AFDF|A2FD GECE|A3d BdAF|EDD2 EFDG:|
|:FDD2 FDDG|FDD2 GECE|FDD2 FDGF|1 EDCD EFDG:|\
[2 EDCD EFGA||
|:dff2 dffe|d2dB AFDA|cee2 ceec|B2^GB AFDA|
dff2 dffe|d2dB AFDA|cee2 faec|1 dcce d2 dA:|\
[2 dcce dcdB"_DC"||

%%%

